assets/wallet-icons/trezor.svg

<svg width="40px" height="40px" viewBox="0 0 114 166" version="1.1" xmlns="http://www.w3.org/2000/svg" xmlns:xlink="http://www.w3.org/1999/xlink">
	<g id="Styles" stroke="none" stroke-width="1" fill="none" fill-rule="evenodd">
		<path d="M17,51.453125 L17,40 C17,17.90861 34.90861,-1.0658141e-14 57,-1.0658141e-14 C79.09139,-1.0658141e-14 97,17.90861 97,40 L97,51.453125 L113.736328,51.453125 L113.736328,139.193359 L57.5,166 L0,139.193359 L0,51.453125 L17,51.453125 Z M37,51.453125 L77,51.453125 L77,40 L76.9678398,40 C76.3750564,29.406335 67.6617997,21 57,21 C46.3382003,21 37.6249436,29.406335 37.0321602,40 L37,40 L37,51.453125 Z M23,72 L23,125 L56.8681641,140.966797 L91,125 L91,72 L23,72 Z" id="Trezor-logo" fill="currentColor"></path>
	</g>
</svg>

<svg width="40" height="40" viewBox="0 0 114 166" xmlns="http://www.w3.org/2000/svg">
    <path d="M17 51.453V40C17 17.909 34.909 0 57 0s40 17.909 40 40v11.453h16.736v87.74L57.5 166 0 139.193v-87.74h17zm20 0h40V40h-.032C76.375 29.406 67.662 21 57 21s-19.375 8.406-19.968 19H37v11.453zM23 72v53l33.868 15.967L91 125V72H23z" fill="currentColor" fill-rule="evenodd"/>
</svg>
